source/img/logo-pic-desktop.svg

<svg width="70" height="70" viewBox="0 0 70 70" fill="none" xmlns="http://www.w3.org/2000/svg">
<g clip-path="url(#clip0_2403_995)">
<path d="M59.8825 29.2098C58.1585 25.0433 55.3821 21.4052 51.83 18.6582C48.2778 15.9111 44.074 14.1511 39.6374 13.5534C35.2008 12.9558 30.6864 13.5414 26.5441 15.2519C22.4017 16.9624 18.7762 19.7381 16.0287 23.3023C13.2812 26.8666 11.5077 31.0948 10.885 35.5658C10.2622 40.0368 10.812 44.5943 12.4795 48.7842C14.147 52.9741 16.874 56.65 20.3887 59.4457C23.9034 62.2413 28.083 64.059 32.5111 64.7176C31.9311 62.6093 31.3411 60.2791 30.8211 57.8077C32.3339 58.7975 33.9262 59.658 35.5813 60.38V60.38C35.5813 60.38 35.7013 62.5588 35.8613 64.9899C37.6496 65.021 39.4362 64.8621 41.1916 64.5158C41.1462 64.2623 41.1462 64.0027 41.1916 63.7492C41.4816 61.8628 42.2816 58.4634 42.4416 56.2744C43.595 55.1862 44.5734 53.9236 45.3418 52.5319V52.5319L45.2818 52.9758C44.7317 57.273 43.5817 61.8628 42.8817 63.1338C42.655 63.5546 42.3761 63.9444 42.0516 64.2939C45.6716 63.4373 49.0636 61.7968 51.9924 59.4862C54.9212 57.1755 57.3168 54.25 59.013 50.9125C60.7093 47.5749 61.6656 43.9052 61.8158 40.1577C61.9659 36.4102 61.3062 32.6746 59.8825 29.2098V29.2098ZM58.4124 33.033C57.9724 33.4667 57.0624 33.7592 56.9123 32.4479C56.7623 31.1365 56.7223 30.2186 56.7223 30.2186C56.7223 30.2186 54.7922 26.7586 54.0722 26.7182C53.3522 26.6779 48.2419 30.2186 46.8919 31.7619C45.7218 33.0632 45.4918 32.9724 45.4918 35.2623C45.4918 36.9872 45.7118 43.5037 45.5918 48.4869L37.4414 50.6759C34.8796 51.4175 32.2744 51.9969 29.641 52.4109L28.6409 46.5299H28.5009L25.9308 33.2448C25.9308 33.2448 22.1206 31.7922 20.7206 31.3988C20.0632 31.1087 19.3372 31.0144 18.6284 31.127C17.9196 31.2396 17.2575 31.5544 16.7204 32.0343C16.1723 32.5183 15.7342 33.1157 15.4356 33.7859C15.1371 34.4561 14.9852 35.1833 14.9903 35.918C15.2017 36.3868 15.3626 36.8772 15.4703 37.3806C15.5203 37.8648 14.2702 37.8144 13.4702 37.8144C12.6702 37.8144 12.5502 36.3618 13.1802 34.657C13.6717 33.3462 14.2809 32.0834 15.0003 30.8843C15.5413 29.8133 16.2392 28.8305 17.0704 27.9691C17.0704 27.9691 17.2104 27.6261 18.3204 27.727C19.4305 27.8278 25.6008 28.1607 25.6008 28.1607L25.6508 25.8709C32.3575 24.9368 39.1216 24.4851 45.8918 24.5192C45.8918 25.1345 45.8918 25.7498 45.8918 26.3652C48.4562 25.1847 51.2175 24.5004 54.0322 24.3477C54.1828 24.3438 54.332 24.3778 54.4664 24.4464C54.6008 24.5151 54.7162 24.6163 54.8022 24.7411C55.1423 25.1749 57.2124 27.7673 57.4524 28.1406C58.1246 29.1097 58.7359 30.1204 59.2825 31.1668C59.0951 31.8293 58.8012 32.4564 58.4124 33.0229V33.033Z" fill="#FDC305"/>
<path d="M56.4628 26.8594C56.9329 27.4647 57.3429 27.9993 57.4629 28.1607C58.1351 29.1298 58.7464 30.1406 59.293 31.1869C59.1027 31.8278 58.8124 32.4339 58.4329 32.9825C57.9929 33.4163 57.0829 33.7088 56.9329 32.3974C56.7829 31.0861 56.7229 30.2186 56.7229 30.2186C56.7229 30.2186 54.7928 26.7586 54.0727 26.7182C53.3527 26.6779 48.2424 30.2186 46.8924 31.7619C45.7223 33.0632 45.4923 32.9724 45.4923 35.2623C45.4923 36.7754 45.6623 41.9704 45.6223 46.5904C47.4324 46.7922 50.0925 47.2966 50.8926 48.4869C50.8926 48.4869 50.6026 41.2441 58.703 45.037C58.703 45.037 58.983 35.1614 70.1635 37.6933C66.3628 33.1922 61.7035 29.5079 56.4628 26.8594V26.8594Z" fill="#F06351"/>
<path d="M45.9323 24.5192C45.9729 18.9295 45.5043 13.3478 44.5322 7.84465C44.5322 7.84465 44.3822 6.53329 43.6622 7.60255C43.068 8.88085 42.6636 10.2404 42.4621 11.6375C38.1871 11.3608 33.896 11.4756 29.6415 11.9805C28.8214 9.20645 27.4214 7.94553 26.7513 8.27841C26.0813 8.6113 26.0013 11.5871 26.0013 11.5871L25.6713 25.8709C32.3846 24.9358 39.1554 24.4841 45.9323 24.5192V24.5192Z" fill="#F06351"/>
<path d="M45.3515 52.5319C45.4815 51.4526 45.5515 50.0202 45.5915 48.4364L37.4415 50.6254C34.8809 51.384 32.2758 51.9804 29.6415 52.4109L30.7515 57.4546C30.7515 57.5656 30.7515 57.6765 30.8215 57.7875C32.3342 58.7774 33.9265 59.6378 35.5815 60.3598C38.0002 59.1935 40.3038 57.7986 42.4615 56.1937V56.2542C43.6096 55.1714 44.5845 53.9158 45.3515 52.5319V52.5319Z" fill="#E55645"/>
<path d="M32.0016 21.3618C31.9516 21.2609 33.0016 22.0477 33.4116 22.2898C33.8216 22.5319 34.0216 22.7135 34.0216 22.885C34.0216 23.0565 33.7616 23.228 33.4016 23.228C33.0416 23.228 32.4816 23.1069 32.4016 22.9657C32.3216 22.8245 33.0016 22.9657 33.3416 22.9657H33.6316C33.0159 22.5114 32.4672 21.9714 32.0016 21.3618Z" fill="black"/>
<path d="M39.502 21.4728C39.502 21.4728 38.502 22.764 38.412 22.8245C38.322 22.885 38.2419 23.1675 38.6019 23.117C39.0152 23.0548 39.4231 22.9604 39.8219 22.8346C39.9319 22.774 39.892 22.6328 39.702 22.653C39.512 22.6732 39.022 22.7034 38.702 22.764L39.5519 21.4829C39.5519 21.4829 39.582 21.3618 39.502 21.4728Z" fill="black"/>
<path d="M36.3617 27.6362C36.8253 27.4302 37.2084 27.0756 37.4517 26.6274C37.7317 25.9617 37.4517 25.7095 37.0117 25.6187C36.4064 25.5073 35.7817 25.6297 35.2617 25.9617C34.8717 26.3349 34.9217 26.6981 35.2617 26.9704C35.5995 27.2376 35.9691 27.4613 36.3617 27.6362V27.6362Z" fill="black"/>
<path d="M36.0016 28.9072C35.8868 29.136 35.7308 29.3412 35.5416 29.5124C35.2568 29.7436 34.9067 29.8778 34.5416 29.8958C33.991 29.9503 33.4405 29.7916 33.0016 29.4519C32.8 29.333 32.6206 29.1793 32.4716 28.998C32.3715 28.8881 32.2486 28.802 32.1116 28.7458C32.1116 28.7458 32.8616 32.8917 34.6816 33.5575C36.5016 34.2233 36.8416 32.7909 36.8916 32.4075C36.9525 31.2595 36.6666 30.1198 36.0716 29.1392C36.0716 28.8366 36.0516 29.0383 36.0016 28.9072Z" fill="#F06351"/>
<path d="M34.3015 30.0572C33.8335 29.9893 33.384 29.8265 32.9801 29.5786C32.5763 29.3306 32.2263 29.0027 31.9515 28.6147C31.9269 28.5869 31.9133 28.551 31.9133 28.5138C31.9133 28.4766 31.9269 28.4407 31.9515 28.4129C31.9646 28.3995 31.9801 28.3888 31.9973 28.3816C32.0145 28.3743 32.0329 28.3705 32.0515 28.3705C32.0702 28.3705 32.0886 28.3743 32.1058 28.3816C32.1229 28.3888 32.1385 28.3995 32.1515 28.4129C32.399 28.7631 32.7129 29.0603 33.0751 29.2871C33.4374 29.5139 33.8406 29.666 34.2615 29.7344C34.5945 29.7091 34.9168 29.6045 35.2019 29.4292C35.487 29.2538 35.7268 29.0127 35.9015 28.7256L36.0415 28.534L36.1415 28.7559C36.1415 28.7559 36.5215 29.5225 37.1415 29.5629C37.7615 29.6032 38.2015 29.1392 38.7715 28.2616C38.7927 28.2295 38.8257 28.2072 38.8632 28.1996C38.9007 28.1921 38.9397 28.1998 38.9715 28.2212C39.0034 28.2427 39.0254 28.2759 39.0329 28.3138C39.0404 28.3516 39.0327 28.3909 39.0115 28.423C38.3449 29.4116 37.7149 29.8857 37.1215 29.8453C36.8922 29.8147 36.6726 29.7326 36.4788 29.6052C36.285 29.4778 36.1219 29.3082 36.0015 29.1089C35.8059 29.3845 35.5518 29.6127 35.2577 29.7767C34.9636 29.9407 34.6369 30.0365 34.3015 30.0572Z" fill="black"/>
<path d="M36.2616 43.6348C38.3327 43.6348 40.0116 41.9412 40.0116 39.8521C40.0116 37.7629 38.3327 36.0693 36.2616 36.0693C34.1905 36.0693 32.5116 37.7629 32.5116 39.8521C32.5116 41.9412 34.1905 43.6348 36.2616 43.6348Z" fill="#FDC305"/>
<path d="M41.2316 36.7754L38.1016 38.0968L39.2516 32.4176L31.7516 42.2629L34.8816 40.9415L33.7316 46.6308L41.2316 36.7754ZM33.8416 40.6389L38.0016 35.1816L37.1916 39.2165L39.1916 38.3894L35.0016 43.8568L35.8116 39.8218L33.8416 40.6389Z" fill="#111111"/>
<path d="M32.4415 39.156C33.0601 39.156 33.5615 38.6502 33.5615 38.0262C33.5615 37.4023 33.0601 36.8964 32.4415 36.8964C31.823 36.8964 31.3215 37.4023 31.3215 38.0262C31.3215 38.6502 31.823 39.156 32.4415 39.156Z" fill="#111111"/>
<path d="M38.9619 43.2515C39.3982 43.2515 39.7519 42.8947 39.7519 42.4546C39.7519 42.0145 39.3982 41.6577 38.9619 41.6577C38.5256 41.6577 38.1719 42.0145 38.1719 42.4546C38.1719 42.8947 38.5256 43.2515 38.9619 43.2515Z" fill="#111111"/>
<path d="M39.9219 41.0625C40.1152 41.0625 40.2719 40.9045 40.2719 40.7095C40.2719 40.5145 40.1152 40.3564 39.9219 40.3564C39.7286 40.3564 39.5719 40.5145 39.5719 40.7095C39.5719 40.9045 39.7286 41.0625 39.9219 41.0625Z" fill="#111111"/>
<path d="M45.8822 26.345C44.077 27.9865 42.3768 29.7419 40.792 31.6005C39.2133 33.4458 37.4318 35.1041 35.4817 36.5434C35.2617 36.0087 33.8516 35.0101 33.8516 35.0101C33.8516 35.0101 30.7115 32.8413 28.6514 31.1365C27.5377 30.2009 26.4886 29.1898 25.5112 28.1103L23.5111 27.9993C26.3983 32.2534 30.628 35.3963 35.5117 36.9166C36.3717 36.7754 38.7919 35.0303 40.602 33.6079C42.7434 31.7709 44.7489 29.7784 46.6022 27.6463C47.1004 27.0491 47.4867 26.3654 47.7423 25.6288C46.6023 26.0121 45.8822 26.345 45.8822 26.345Z" fill="#F06351"/>
<path d="M65.2227 8.5306L56.7627 18.0531L55.5427 16.0457L63.6927 5L65.2227 8.5306Z" fill="#FDC305"/>
<path d="M62.6531 22.4109L68.1931 18.265L67.4131 14.4923L62.0131 19.3443L62.6531 22.4109Z" fill="#FDC305"/>
<path d="M59.923 54.8016L66.053 58.0094L69.063 55.649L62.373 52.8749L59.923 54.8016Z" fill="#FDC305"/>
<path d="M1.94995 11.0222L5.01995 7.63282L14.31 16.7115L13.09 19.0114L1.94995 11.0222Z" fill="#FDC305"/>
<path d="M7.38003 21.4223L2.68003 18.265L0.280029 22.1688L5.43003 24.5898L7.38003 21.4223Z" fill="#FDC305"/>
<path d="M13.91 58.0094L9.35999 61.3887L12.16 65L16.18 60.9449L13.91 58.0094Z" fill="#FDC305"/>
<path d="M25.9313 33.2448C25.9313 33.2448 22.1211 31.7922 20.721 31.3988C20.0636 31.1087 19.3377 31.0144 18.6289 31.127C17.9201 31.2396 17.258 31.5544 16.7208 32.0343C16.1728 32.5183 15.7346 33.1157 15.4361 33.7859C15.1375 34.4561 14.9856 35.1833 14.9907 35.918C15.2021 36.3868 15.3631 36.8772 15.4708 37.3806C15.5208 37.8648 14.2707 37.8144 13.4707 37.8144C12.6706 37.8144 12.5506 36.3618 13.1807 34.657C13.6722 33.3462 14.2814 32.0834 15.0007 30.8843C9.55047 33.7492 0 40.3665 0 40.3665C2.73182 40.2003 5.47292 40.2814 8.1904 40.6086C13.4407 41.1432 13.1907 45.3194 13.1907 45.3194C15.0373 44.8059 16.9192 44.4316 18.8209 44.1997C20.941 44.0585 21.091 46.3383 21.091 46.3383L21.6211 50.232C22.4259 49.3537 23.3134 48.5564 24.2712 47.8514C25.5057 46.8545 27.0776 46.3839 28.6514 46.54V46.54L25.9313 33.2448Z" fill="#F06351"/>
</g>
<defs>
<clipPath id="clip0_2403_995">
<rect width="70" height="70" fill="white"/>
</clipPath>
</defs>
</svg>

<svg xmlns="http://www.w3.org/2000/svg" fill="none" viewBox="0 0 70 70"><path fill="#FDC305" d="M59.88 29.21a25.8 25.8 0 0 0-8.05-10.55 25.5 25.5 0 0 0-25.29-3.4 25.64 25.64 0 0 0-10.51 8.04 25.95 25.95 0 0 0-3.55 25.48 25.82 25.82 0 0 0 7.9 10.67 25.5 25.5 0 0 0 12.13 5.27c-.58-2.11-1.17-4.44-1.69-6.91 1.51.99 3.1 1.85 4.76 2.57 0 0 .12 2.18.28 4.61 1.79.03 3.58-.13 5.33-.47a2.17 2.17 0 0 1 0-.77c.3-1.89 1.1-5.29 1.25-7.48a15.33 15.33 0 0 0 2.9-3.74l-.06.45c-.55 4.3-1.7 8.88-2.4 10.15-.23.42-.5.81-.83 1.16a25.55 25.55 0 0 0 16.96-13.38 26.04 26.04 0 0 0 .87-21.7Zm-1.47 3.82c-.44.44-1.35.73-1.5-.58-.15-1.31-.19-2.23-.19-2.23s-1.93-3.46-2.65-3.5c-.72-.04-5.83 3.5-7.18 5.04-1.17 1.3-1.4 1.21-1.4 3.5 0 1.73.22 8.24.1 13.23l-8.15 2.19a63.54 63.54 0 0 1-7.8 1.73l-1-5.88h-.14l-2.57-13.29s-3.8-1.45-5.2-1.84a3.73 3.73 0 0 0-4.01.63 5.11 5.11 0 0 0-1.73 3.89c.21.47.37.96.48 1.46.05.48-1.2.43-2 .43s-.92-1.45-.29-3.15A23.1 23.1 0 0 1 15 30.88a11.97 11.97 0 0 1 2.07-2.91s.14-.34 1.25-.24c1.11.1 7.28.43 7.28.43l.05-2.29c6.7-.93 13.47-1.38 20.24-1.35v1.85a22.36 22.36 0 0 1 8.14-2.02.9.9 0 0 1 .77.4c.34.42 2.41 3.02 2.65 3.4a28.3 28.3 0 0 1 1.83 3.02 6.32 6.32 0 0 1-.87 1.85v.01Z"/><path fill="#F06351" d="m56.12 27.14 1.01 1.25c.68.94 1.3 1.91 1.85 2.92-.19.62-.48 1.2-.87 1.73-.44.42-1.37.7-1.52-.56-.15-1.27-.21-2.1-.21-2.1s-1.96-3.34-2.69-3.38c-.72-.04-5.9 3.38-7.27 4.87-1.19 1.25-1.42 1.16-1.42 3.37 0 1.46.17 6.47.13 10.93 1.84.2 4.53.68 5.34 1.83 0 0-.3-6.99 7.92-3.33 0 0 .28-9.52 11.61-7.08a44.1 44.1 0 0 0-13.88-10.45ZM45.93 24.52a92.02 92.02 0 0 0-1.4-16.68s-.15-1.3-.87-.24c-.6 1.28-1 2.64-1.2 4.04a70.27 70.27 0 0 0-12.82.34c-.82-2.77-2.22-4.03-2.89-3.7-.67.33-.75 3.3-.75 3.3l-.33 14.3c6.71-.94 13.49-1.4 20.26-1.36Z"/><path fill="#E55645" d="M45.35 52.53c.13-1.08.2-2.51.24-4.1l-8.15 2.2a63.53 63.53 0 0 1-7.8 1.78l1.11 5.04c0 .12 0 .23.07.34 1.51.99 3.1 1.85 4.76 2.57a42.35 42.35 0 0 0 6.88-4.17v.06a15.33 15.33 0 0 0 2.9-3.72Z"/><path fill="#000" d="M32 21.36c-.05-.1 1 .69 1.41.93.41.24.61.42.61.6 0 .17-.26.34-.62.34s-.92-.12-1-.26c-.08-.15.6 0 .94 0h.3c-.62-.46-1.17-1-1.64-1.6ZM39.5 21.47s-1 1.3-1.09 1.35c-.09.07-.17.35.2.3.4-.07.81-.16 1.21-.29.11-.06.07-.2-.12-.18-.19.02-.68.05-1 .11l.85-1.28s.03-.12-.05 0ZM36.36 27.64c.47-.21.85-.56 1.1-1.01.27-.67 0-.92-.45-1.01-.6-.11-1.23.01-1.75.34-.39.37-.34.74 0 1.01s.7.5 1.1.67Z"/><path fill="#F06351" d="M36 28.9c-.11.24-.27.44-.46.61-.28.23-.63.37-1 .39-.55.05-1.1-.1-1.54-.45a2 2 0 0 1-.53-.45 1 1 0 0 0-.36-.25s.75 4.14 2.57 4.8c1.82.67 2.16-.76 2.21-1.14a5.72 5.72 0 0 0-.82-3.27c0-.3-.02-.1-.07-.23Z"/><path fill="#000" d="M34.3 30.06a3.48 3.48 0 0 1-2.35-1.45.15.15 0 0 1 0-.2.14.14 0 0 1 .2 0 3.23 3.23 0 0 0 2.11 1.32 2.1 2.1 0 0 0 1.64-1l.14-.2.1.23s.38.76 1 .8c.62.04 1.06-.42 1.63-1.3a.14.14 0 0 1 .2-.04.15.15 0 0 1 .04.2c-.67 1-1.3 1.47-1.89 1.43A1.54 1.54 0 0 1 36 29.1a2.27 2.27 0 0 1-1.7.95Z"/><path fill="#FDC305" d="M36.26 43.63c2.07 0 3.75-1.69 3.75-3.78a3.77 3.77 0 0 0-3.75-3.78 3.77 3.77 0 0 0-3.75 3.78 3.77 3.77 0 0 0 3.75 3.78Z"/><path fill="#111" d="M41.23 36.78 38.1 38.1l1.15-5.68-7.5 9.84 3.13-1.32-1.15 5.7 7.5-9.86Zm-7.39 3.86L38 35.18l-.8 4.04 2-.83-4.2 5.47.81-4.04-1.97.82ZM32.44 39.16c.62 0 1.12-.51 1.12-1.13 0-.63-.5-1.13-1.12-1.13-.62 0-1.12.5-1.12 1.13 0 .62.5 1.13 1.12 1.13ZM38.96 43.25a.8.8 0 0 0 .8-.8.8.8 0 0 0-.8-.8.8.8 0 0 0-.79.8c0 .44.36.8.8.8ZM39.92 41.06a.35.35 0 0 0 0-.7c-.2 0-.35.15-.35.35 0 .2.16.35.35.35Z"/><path fill="#F06351" d="M45.88 26.34c-1.8 1.65-3.5 3.4-5.09 5.26a31.99 31.99 0 0 1-5.3 4.94c-.23-.53-1.64-1.53-1.64-1.53s-3.14-2.17-5.2-3.87a32.02 32.02 0 0 1-3.14-3.03l-2-.11a22.65 22.65 0 0 0 12 8.92c.86-.14 3.28-1.89 5.1-3.31a57.9 57.9 0 0 0 6-5.96c.49-.6.88-1.28 1.13-2.02-1.14.38-1.86.71-1.86.71Z"/><path fill="#FDC305" d="m65.22 8.53-8.46 9.52-1.22-2L63.7 5l1.53 3.53ZM62.65 22.41l5.54-4.14-.78-3.78-5.4 4.85.64 3.07ZM59.92 54.8l6.13 3.2 3.01-2.35-6.69-2.78-2.45 1.93ZM1.95 11.02l3.07-3.39 9.29 9.08-1.22 2.3-11.14-7.99ZM7.38 21.42l-4.7-3.16-2.4 3.9 5.15 2.43 1.95-3.17ZM13.91 58 9.36 61.4l2.8 3.61 4.02-4.06-2.27-2.93Z"/><path fill="#F06351" d="M25.93 33.24s-3.8-1.45-5.2-1.84a3.73 3.73 0 0 0-4 .63 5.11 5.11 0 0 0-1.74 3.89c.21.47.37.96.48 1.46.05.48-1.2.43-2 .43s-.92-1.45-.29-3.15A23.1 23.1 0 0 1 15 30.88c-5.45 2.87-15 9.49-15 9.49 2.73-.17 5.47-.09 8.19.24 5.25.53 5 4.7 5 4.7 1.85-.5 3.73-.88 5.63-1.11 2.12-.14 2.27 2.14 2.27 2.14l.53 3.9c.8-.89 1.7-1.68 2.65-2.39 1.24-1 2.8-1.47 4.38-1.31l-2.72-13.3Z"/></svg>
